src/22x22/places/folder-gruvbox-material-purple-print.svg

<?xml version="1.0" encoding="UTF-8"?>
<svg width="22" height="22" version="1" xmlns="http://www.w3.org/2000/svg">
 <rect x="1" y="8.5" width="20" height="12" rx="1" ry="1" opacity=".2"/>
 <path d="m1 16c0 0.554 0.446 1 1 1h18c0.554 0 1-0.446 1-1v-11c0-0.554-0.446-1-1-1h-9c-1.5 0-2-2-3.5-2h-5.5c-0.554 0-1 0.446-1 1" fill="#945e80"/>
 <rect x="1" y="7.5" width="20" height="12" rx="1" ry="1" opacity=".2"/>
 <rect x="3" y="6" width="16" height="8" rx="1" ry="1" fill="#E5DFC8"/>
 <rect x="1" y="8" width="20" height="12" rx="1" ry="1" fill="#d3869b"/>
 <path d="m2 2c-0.554 0-1 0.446-1 1v0.5c0-0.554 0.446-1 1-1h5.5c1.5 0 2 2 3.5 2h9c0.554 0 1 0.446 1 1v-0.5c0-0.554-0.446-1-1-1h-9c-1.5 0-2-2-3.5-2z" fill="#E5DFC8" opacity=".1"/>
 <path d="m8 10v1.5h6v-1.5zm-0.5 2c-0.25 0-0.5 0.25-0.5 0.5v2c0 0.25 0.25 0.5 0.5 0.5h0.5v2h6v-2h0.5c0.25 0 0.5-0.25 0.5-0.5v-2c0-0.25-0.25-0.5-0.5-0.5zm0.5 2h6v0.5h-6z" fill="#4A413F"/>
</svg>

<svg xmlns="http://www.w3.org/2000/svg" width="22" height="22" version="1">
 <rect style="opacity:0.2" width="20" height="12" x="1" y="8.5" rx="1" ry="1"/>
 <path style="fill:#945e80" d="M 1,16 C 1,16.554 1.446,17 2,17 H 20 C 20.554,17 21,16.554 21,16 V 5 C 21,4.446 20.554,4 20,4 H 11 C 9.5,4 9,2 7.5,2 H 2 C 1.446,2 1,2.446 1,3"/>
 <rect style="opacity:0.2" width="20" height="12" x="1" y="7.5" rx="1" ry="1"/>
 <rect style="fill:#E5DFC8" width="16" height="8" x="3" y="6" rx="1" ry="1"/>
 <rect style="fill:#d3869b" width="20" height="12" x="1" y="8" rx="1" ry="1"/>
 <path style="opacity:0.1;fill:#E5DFC8" d="M 2,2 C 1.446,2 1,2.446 1,3 V 3.5 C 1,2.946 1.446,2.5 2,2.5 H 7.5 C 9,2.5 9.5,4.5 11,4.5 H 20 C 20.554,4.5 21,4.946 21,5.5 V 5 C 21,4.446 20.554,4 20,4 H 11 C 9.5,4 9,2 7.5,2 Z"/>
 <path style="fill:#4A413F" d="M 8,10 V 11.5 H 14 V 10 Z M 7.5,12 C 7.25,12 7,12.25 7,12.5 V 14.5 C 7,14.75 7.25,15 7.5,15 H 8 V 17 H 14 V 15 H 14.5 C 14.75,15 15,14.75 15,14.5 V 12.5 C 15,12.25 14.75,12 14.5,12 Z M 8,14 H 14 V 14.5 H 8 Z"/>
</svg>
